svgs/light/file-arrow-up.svg

<svg xmlns="http://www.w3.org/2000/svg" viewBox="0 0 384 512"><!-- Font Awesome Pro 6.0.0-alpha2 by @fontawesome - https://fontawesome.com License - https://fontawesome.com/license (Commercial License) --><path d="M365.256 125.254L258.746 18.746C246.744 6.742 230.465 0 213.49 0H64C28.654 0 0 28.654 0 64V448C0 483.346 28.654 512 64 512H320C355.348 512 384 483.346 384 448V170.51C384 153.535 377.258 137.258 365.256 125.254ZM224 34.076C228.477 35.643 232.666 37.922 236.119 41.375L342.627 147.879C346.08 151.332 348.357 155.523 349.924 160H240C231.188 160 224 152.828 224 144V34.076ZM352 448C352 465.645 337.645 480 320 480H64C46.355 480 32 465.645 32 448V64C32 46.355 46.355 32 64 32H192V144C192 170.469 213.531 192 240 192H352V448ZM180.688 228.688L100.688 308.688C94.438 314.938 94.438 325.063 100.688 331.312S117.063 337.562 123.312 331.312L176 278.625V400C176 408.844 183.156 416 192 416S208 408.844 208 400V278.625L260.688 331.312C263.812 334.438 267.906 336 272 336S280.188 334.438 283.312 331.312C289.562 325.062 289.562 314.937 283.312 308.688L203.312 228.688C197.062 222.438 186.938 222.438 180.688 228.688Z"/></svg>

<svg xmlns="http://www.w3.org/2000/svg" viewBox="0 0 384 512"><!--! Font Awesome Pro 6.4.0 by @fontawesome - https://fontawesome.com License - https://fontawesome.com/license (Commercial License) Copyright 2023 Fonticons, Inc. --><path d="M320 480H64c-17.7 0-32-14.3-32-32V64c0-17.7 14.3-32 32-32H192V144c0 26.5 21.5 48 48 48H352V448c0 17.7-14.3 32-32 32zM240 160c-8.8 0-16-7.2-16-16V32.5c2.8 .7 5.4 2.1 7.4 4.2L347.3 152.6c2.1 2.1 3.5 4.6 4.2 7.4H240zM64 0C28.7 0 0 28.7 0 64V448c0 35.3 28.7 64 64 64H320c35.3 0 64-28.7 64-64V163.9c0-12.7-5.1-24.9-14.1-33.9L254.1 14.1c-9-9-21.2-14.1-33.9-14.1H64zM208 278.6l52.7 52.7c6.2 6.2 16.4 6.2 22.6 0s6.2-16.4 0-22.6l-80-80c-6.2-6.2-16.4-6.2-22.6 0l-80 80c-6.2 6.2-6.2 16.4 0 22.6s16.4 6.2 22.6 0L176 278.6V400c0 8.8 7.2 16 16 16s16-7.2 16-16V278.6z"/></svg>
